!!!COM: Corelli, Arcangelo
!!!OPR: Sonata da chiesa
!!!OPS: 3
!!!ONM: 4
!!!OMV: 4
!!!OMD: Presto
**kern	**fb	**kern	**kern	**dynam
*part3	*part3	*part2	*part1	*part1
*staff3	*	*staff2	*staff1	*
*I"Violone & Organo	*	*I"Violino II	*I"Violino I	*
*clefF4	*	*clefG2	*clefG2	*
*k[f#c#]	*	*k[f#c#]	*k[f#c#]	*
*b:	*	*b:	*b:	*
*M2/2	*	*M2/2	*M2/2	*
*met(c|)	*	*met(c|)	*met(c|)	*
*MM168	*	*MM168	*MM168	*
=1	=1	=1	=1	=1
4B	.	1r	8r	.
.	.	.	8ff#L	.
4A#X	6	.	8cc#	.
.	.	.	8ff#J	.
4B	.	.	8ddL	.
.	.	.	8ff#	.
4A#	6	.	8cc#	.
.	.	.	8ff#J	.
=2	=2	=2	=2	=2
4B	.	1r	8ddL	.
.	.	.	8ff#	.
4Ani	6	.	8cc#	.
.	.	.	8ff#J	.
4G	7	.	8bL	.
.	.	.	8ff#	.
4E	.	.	8gg	.
.	.	.	8bJ	.
=3	=3	=3	=3	=3
4F#	#	1r	8a#XL	.
.	.	.	8f#J	.
4D	6	.	2b	.
4E	6 5	.	.	.
4F#	#	.	4a#	.
=4	=4	=4	=4	=4
4BB	.	1r	8bL	.
.	.	.	8dd	.
2.r	.	.	8cc#	.
.	.	.	8eeJ	.
.	.	.	8ddL	.
.	.	.	8ff#	.
.	.	.	8ee	.
.	.	.	8ggJ	.
=5	=5	=5	=5	=5
4F#	.	8r	4ff#	.
.	.	8cc#L	.	.
4E#X	6	8g#X	4gg#X	.
.	.	8cc#J	.	.
4F#	.	8aL	4cc#	.
.	.	8cc#	.	.
4E#	6	8g#	4r	.
.	.	8cc#J	.	.
=6	=6	=6	=6	=6
4F#	.	8aL	4r	.
.	.	8cc#	.	.
4Eni	6	8g#X	2cc#	.
.	.	8cc#J	.	.
2D	7	8f#L	.	.
.	.	8cc#	.	.
.	6	8dd	[4b	.
.	.	8f#J	.	.
=7	=7	=7	=7	=7
4C#	#	8e#XL	4b]	.
.	.	8c#J	.	.
4D	5	2f#	4a	.
4BB	#6\ 5	.	2g#X	.
4C#	#	4e#	.	.
=8	=8	=8	=8	=8
2FF#	-	8f#L	4f#	.
.	.	8ff#	.	.
.	.	8cc#	4.r	.
.	.	8ff#J	.	.
2BB	.	4dd	.	.
.	.	.	8bbL	.
.	.	4B	8ff#	.
.	.	.	8bbJ	.
=9	=9	=9	=9	=9
2E	.	8r	4gg	.
.	.	8eeL	.	.
.	.	8b	4e	.
.	.	8eeJ	.	.
2AA	.	4cc#	8r	.
.	.	.	8aaL	.
.	.	4A	8ee	.
.	.	.	8aaJ	.
=10	=10	=10	=10	=10
2D	.	8r	4ff#	.
.	.	8ddL	.	.
.	.	8a	4d	.
.	.	8ddJ	.	.
2GG	.	8bL	8r	.
.	.	8dd	8bbL	.
.	.	8gg	8b	.
.	.	8ff#J	8ddJ	.
=11	=11	=11	=11	=11
4.AA	.	4ee	8cc#L	.
.	.	.	8aJ	.
.	.	4r	2aa	.
8F#	.	.	.	.
8GL	9	2bb	.	.
8A	.	.	.	.
8B	6	.	[4gg	.
8c#J	.	.	.	.
=12	=12	=12	=12	=12
8dL	5 4	4aa	4gg]	.
8A	.	.	.	.
8B	5	2ddd	4ff#	.
8F#J	.	.	.	.
8GL	6 5	.	2ee	.
8E	.	.	.	.
8A	.	4ccc#	.	.
8AAJ	.	.	.	.
=13	=13	=13	=13	=13
4D	.	4ddd	8ddL	.
.	.	.	8ff#	.
4r	.	2.r	8cc#	.
.	.	.	8ff#J	.
4B	.	.	8ddL	.
.	.	.	8ff#	.
4A#X	6	.	8cc#	.
.	.	.	8ff#J	.
=14	=14	=14	=14	=14
4B	.	8r	4dd	.
.	.	8ff#L	.	.
4A#X	6	8cc#	4f#	.
.	.	8ff#J	.	.
4B	.	8ddL	2r	.
.	.	8ff#	.	.
4A#	6	8cc#	.	.
.	.	8ff#J	.	.
=15	=15	=15	=15	=15
4B	.	4dd	8r	.
.	.	.	8eeL	.
4G#X	6	4B	8b	.
.	.	.	8eeJ	.
4Ani	.	2r	8cc#L	.
.	.	.	8ee	.
4G#	6	.	8b	.
.	.	.	8eeJ	.
=16	=16	=16	=16	=16
4A	.	8r	4cc#	.
.	.	8eeL	.	.
4G#X	6	8b	4e	.
.	.	8eeJ	.	.
4A	.	8cc#L	2r	.
.	.	8ee	.	.
4G#	6	8b	.	.
.	.	8eeJ	.	.
=17	=17	=17	=17	=17
4A	.	4cc#	8r	.
.	.	.	8cc#L	.
4E#X	6	4c#	8g#X	.
.	.	.	8cc#J	.
4F#	.	2r	8aL	.
.	.	.	8cc#	.
4E#	6	.	8g#	.
.	.	.	8cc#J	.
=18	=18	=18	=18	=18
4F#	.	8r	4a	.
.	.	8cc#L	.	.
4E#X	6	8g#X	4c#	.
.	.	8cc#J	.	.
4F#	.	8aL	2r	.
.	.	8cc#	.	.
4E#	6	8g#	.	.
.	.	8cc#J	.	.
=19	=19	=19	=19	=19
4F#	.	8aL	4r	.
.	.	8cc#	.	.
4Eni	6 #	8g#X	2cc#	.
.	.	8cc#J	.	.
2D	7	8f#L	.	.
.	.	8cc#	.	.
.	6	8dd	[4b	.
.	.	8f#J	.	.
=20	=20	=20	=20	=20
4C#	7 #	8e#XL	4b]	.
.	.	8c#J	.	.
4D	5	2f#	4a	.
4BB	#6\ 5	.	2g#X	.
4C#	#	4e#	.	.
=21	=21	=21	=21	=21
2F#	-	4f#	8f#L	.
.	.	.	8cc#	.
.	.	2.r	8ff#	.
.	.	.	8aaJ	.
2r	.	.	8ff#L	.
.	.	.	8cc#	.
.	.	.	8ff#	.
.	.	.	8aaJ	.
=22	=22	=22	=22	=22
2F#	.	8r	2ff#	.
.	.	8cc#L	.	.
.	.	8ff#	.	.
.	.	8aaJ	.	.
2r	.	8ff#L	2r	.
.	.	8cc#	.	.
.	.	8ff#	.	.
.	.	8aaJ	.	.
=23	=23	=23	=23	=23
4F#	.	8ff#L	4r	.
.	.	8cc#	.	.
4AA	6	8ff#	2ccc#	.
.	.	8aaJ	.	.
2BB	9 5	8ff#L	.	.
.	.	8aa	.	.
.	8 #6\	8gg#X	[4bb	.
.	.	8ff#J	.	.
=24	=24	=24	=24	=24
4C#	7 #	4ee#X	4bb]	.
4FF#	-	2ff#	4aa	.
2C#	#5\ 4	.	2gg#X	.
.	#	4ee#	.	.
=25	=25	=25	=25	=25
4FF#	.	4ff#	8ff#L	.
.	.	.	8cc#	.
4r	.	2.r	8g#X	.
.	.	.	8cc#J	.
4f#	.	.	8aL	.
.	.	.	8cc#	.
4e#X	6	.	8g#	.
.	.	.	8cc#J	.
=26	=26	=26	=26	=26
4f#	.	8r	4a	.
.	.	8cc#L	.	.
4e#X	6	8g#X	4c#	.
.	.	8cc#J	.	.
4f#	.	8aL	2r	.
.	.	8cc#	.	.
4e#	6	8g#	.	.
.	.	8cc#J	.	.
=27	=27	=27	=27	=27
4f#	.	4a	8r	.
.	.	.	8bL	.
4r	.	2.r	8f#	.
.	.	.	8bJ	.
4eni	.	.	8gL	.
.	.	.	8b	.
4d#X	6	.	8f#	.
.	.	.	8bJ	.
=28	=28	=28	=28	=28
4e	.	8r	4g	.
.	.	8bL	.	.
4d#X	6	8f#	4B	.
.	.	8bJ	.	.
4e	.	8gL	2r	.
.	.	8b	.	.
4d#	6	8f#	.	.
.	.	8bJ	.	.
=29	=29	=29	=29	=29
4E	.	8gL	4r	.
.	.	8b	.	.
4Dni	6	8f#	2b	.
.	.	8bJ	.	.
2Cn	7	8eL	.	.
.	.	8b	.	.
.	6	8ccn	[4a	.
.	.	8eJ	.	.
=30	=30	=30	=30	=30
4BB	7 #	8d#XL	4a]	.
.	.	8BJ	.	.
4Cn	5	2e	4g	.
4AA	6 5	.	2f#	.
4BB	#	4d#	.	.
=31	=31	=31	=31	=31
2E	-	2e	8eL	.
.	.	.	8bb	.
.	.	.	8aa	.
.	.	.	8ggJ	.
2BB	7 #	2r	8aaL	.
.	.	.	8gg	.
.	.	.	8aa	.
.	.	.	8ff#J	.
=32	=32	=32	=32	=32
2E	.	8r	8ggL	.
.	.	8bbL	8gg	.
.	.	8aa	8ff#	.
.	.	8ggJ	8eeJ	.
2BB	7 #	8aaL	8ff#L	.
.	.	8gg	8ee	.
.	.	8aa	8ff#	.
.	.	8ff#J	8dd#XJ	.
=33	=33	=33	=33	=33
2E	.	8ggL	8eeL	p
.	.	8gg	8bb	.
.	.	8ff#	8aa	.
.	.	8eeJ	8ggJ	.
2BB	7 #	8ff#L	8aaL	.
.	.	8ee	8gg	.
.	.	8ff#	8aa	.
.	.	8dd#XJ	8ff#J	.
=34	=34	=34	=34	=34
2E	.	8eeL	8ggL	f
.	.	8bb	8gg	.
.	.	8aa	8ff#	.
.	.	8ggJ	8eeJ	.
2BB	-	8ff#L	8ddL	.
.	.	8ff#	8dd	.
.	.	8ee	8cc#	.
.	.	8ddniJ	8bJ	.
=35	=35	=35	=35	=35
4F#	#	4cc#	8a#XL	.
.	.	.	8f#J	.
4D	6	4r	2ff#	.
4BB	6 5	2gg	.	.
4C#	5	.	[4ee	.
=36	=36	=36	=36	=36
4D	9	2ff#	4ee]	.
4F#	6	.	2dd	.
4G#X	6 5	2ee	.	.
4A#X	5	.	[4cc#	.
=37	=37	=37	=37	=37
4B	9	2dd	4cc#]	.
4D	6	.	2b	.
4E	6 5	[2cc#	.	.
4F#	#	.	4a#X	.
=38	=38	=38	=38	=38
8BBL	9	4cc#]	2dd	.
8C#	.	.	.	.
8D	6	2b	.	.
8EJ	.	.	.	.
8F#L	5 4	.	2cc#	.
8G	.	.	.	.
8A	6	[4a	.	.
8F#J	.	.	.	.
=39	=39	=39	=39	=39
8GL	9	4a]	2b	.
8A	.	.	.	.
8B	6	2g	.	.
8c#J	.	.	.	.
8dL	5 4	.	2a	.
8D	.	.	.	.
8F#	6	[4f#	.	.
8DJ	.	.	.	.
=40	=40	=40	=40	=40
8EL	9	4f#]	2g	.
8D	.	.	.	.
8C#	5	2e	.	.
8AAJ	.	.	.	.
8DL	9	.	2f#	.
8E	.	.	.	.
8F#	6	[4d	.	.
8DJ	.	.	.	.
=41	=41	=41	=41	=41
8GL	6 5	4d]	2e	.
8E	.	.	.	.
8A	.	4c#	.	.
8AAJ	.	.	.	.
4D	.	4d	8dL	.
.	.	.	8ff#	.
4r	.	4r	8cc#	.
.	.	.	8ff#J	.
=42	=42	=42	=42	=42
4B	.	2r	8ddL	.
.	.	.	8ff#	.
4A#X	6	.	8cc#	.
.	.	.	8ff#J	.
4B	.	8r	4dd	.
.	.	8bL	.	.
4r	.	8f#	4B	.
.	.	8bJ	.	.
=43	=43	=43	=43	=43
4e	.	8gL	2r	.
.	.	8b	.	.
4d#X	6	8f#	.	.
.	.	8bJ	.	.
4e	.	4g	8r	.
.	.	.	8eeL	.
4r	.	4B	8b	.
.	.	.	8eeJ	.
=44	=44	=44	=44	=44
4A	.	2r	8cc#L	.
.	.	.	8ee	.
4G#X	6	.	8b	.
.	.	.	8eeJ	.
4A	.	8r	4cc#	.
.	.	8aL	.	.
4r	.	8e	4A	.
.	.	8aJ	.	.
=45	=45	=45	=45	=45
4d	.	8f#L	2r	.
.	.	8a	.	.
4c#	6	8e	.	.
.	.	8aJ	.	.
4d	.	8f#L	8r	.
.	.	8ff#	8aaL	.
4D	.	8ee	8gg	.
.	.	8ddJ	8ff#J	.
=46	=46	=46	=46	=46
2E	6	8cc#L	8eeL	.
.	.	8dd	8ff#	.
.	.	8cc#	8ee	.
.	.	8bJ	8ddJ	.
4F#	#	8a#XL	4cc#	.
.	.	8f#J	.	.
4D	6	[4ff#	4r	.
=47	=47	=47	=47	=47
2E	9	4ff#]	2gg	.
.	8	2ee	.	.
4F#	7 #	.	4a#X	.
4BB	.	4dd	[4b	.
=48	=48	=48	=48	=48
2F#	5 4	2cc#	4b]	.
.	#	.	4a#X	.
4BB	.	4b	4b	.
!!!OMD: Adagio
*MM36	*	*MM36	*MM36	*
!	!	!	!LO:TX:a:B:t=Adagio	!
4D	6	4r	[4ff#	.
=49	=49	=49	=49	=49
2E	9	2gg	4ff#]	.
.	8	.	2ee	.
2F#	7 #	4a#X	.	.
.	6 4	[4b	4dd	.
=50	=50	=50	=50	=50
2FF#	5 4	4b]	2cc#	.
.	#3	4a#X	.	.
2BB	.	2b	2b	.
=:|!	=:|!	=:|!	=:|!	=:|!
*-	*-	*-	*-	*-
!!!system-decoration: [{s1,s2},s3]
!!!YEM: CC BY-NC-SA 4.0; CCARH; DCML
!!!RDF**kern: i = editorial accidental